X: 0
T: Fum Fum Fum
Z: Traditional Catalonia Carol
Z: Public Domain
L: 1/4
M: 2/4
V: P1 name="VEU 1"
%%MIDI program 1 -1
V: P2 name="Tempo Track"
%%MIDI program 2 -1
K: C
[V: P1]  A3/4^G/4 A/c/ | B/A/ ^G/E/ | A ^G | Az | A3/4^G/4 A/c/ | B/A/ ^G/E/ | A ^G | Az/ G/4G/4 | c/c/ B/B/ | c/c/ B/B/ | c/c/ B/B/ | cz/ B/4c/4 | d3/4c/4 B/A/ | ^G/E/ A/G/ | A/c/ B/A/ | ^G/E/ A | ^G A |z/ G/4G/4 c/c/ | B/B/ c/c/ | B/B/ c/c/ | B/B/ c |z/ B/4c/4 d3/4c/4 | B/A/ ^G/E/ | A/^G/ A/c/ | B/A/ ^G/E/ | A ^G | Az | A3/4^G/4 A/c/ | B/A/ ^G/E/ | A ^G | Az | A3/4^G/4 A/c/ | B/A/ ^G/E/ | A ^G | Az/ G/4G/4 | c/c/ B/B/ | c/c/ B/B/ | c/c/ B/B/ | cz/ B/4c/4 | d3/4c/4 B/A/ | ^G/E/ A/G/ | A/c/ B/A/ | ^G/E/ A | ^G A |z/ G/4G/4 c/c/ | B/B/ c/c/ | B/B/ c/c/ | B/B/ c |z/ B/4c/4 d3/4c/4 | B/A/ ^G/E/ | A/^G/ A/c/ | B/A/ ^G/E/ | A ^G | Az|]
[V: P2] z2|]

